packages/tokens/icons/shieldCheck/size16Px.svg

<svg viewBox="0 0 16 16" fill="none" xmlns="http://www.w3.org/2000/svg" width="1em" height="1em"><path d="M3.00197 3.49037C5.51639 3.39162 6.63469 2.55106 7.31175 1.81228C7.7016 1.3869 8.29841 1.3869 8.68825 1.81228C9.36531 2.55106 10.4836 3.39162 12.998 3.49037C13.274 3.50121 13.5005 3.72453 13.4953 4.00063C13.3905 9.47423 11.5528 12.7787 8.38989 14.3216C8.14392 14.4416 7.85608 14.4416 7.61011 14.3216C4.44716 12.7787 2.60952 9.47423 2.50474 4.00063C2.49946 3.72453 2.72604 3.50121 3.00197 3.49037Z" stroke="currentColor" stroke-linecap="round"/><path d="M6 8L7.5 9.5L10.5 6.5" stroke="currentColor" stroke-linecap="round" stroke-linejoin="round"/></svg>

<svg xmlns="http://www.w3.org/2000/svg" fill="none" viewBox="0 0 16 16" width="1em" height="1em"><path stroke="currentColor" stroke-linecap="round" d="M3.002 3.49c2.514-.098 3.633-.939 4.31-1.678.39-.425.986-.425 1.376 0 .677.74 1.796 1.58 4.31 1.678a.51.51 0 0 1 .497.51c-.104 5.474-1.942 8.779-5.105 10.322a.89.89 0 0 1-.78 0C4.447 12.779 2.61 9.474 2.505 4a.51.51 0 0 1 .497-.51Z"/><path stroke="currentColor" stroke-linecap="round" stroke-linejoin="round" d="m6 8 1.5 1.5 3-3"/></svg>
